X:125
T:Chestnut
C:John Playford, 1651
%%stretchstaff 0
M:2/2
L:1/8
S:Colin Hume's website,  colinhume.com  - chords can also be printed below the stave.
Q:1/2=92
K:Dm
P:A
"Dm"d2a2 g2f2 | "Gm"e3d "A"^c2A2 | "Dm"d2e2 f2f2 | "C"g2fg "F"a4 :|
P:B
|: "F"a2ab c'2ba | "C/E"g2ga b2ag | "Dm"a2a2 a2gf | "C"g3a "Dm"f4 |\
"F"a2ba bagf | "C/E"g2ag agfe | "Dm"f2d2 "Gm"d2g2 | "A7"e3f "Dm"d4 :|

